svg/Pictogram/pictograms-nps-misc-metal_detectors.svg

<svg xmlns="http://www.w3.org/2000/svg" viewBox="0 0 256 256"><path d="m0 0c-.541 0-.98-.439-.98-.98v-7.528c0-.541.439-.982.98-.982h7.527c.541 0 .983.441.983.982v7.528c0 .541-.442.98-.983.98h-7.527" fill="#fff" transform="matrix(25.88211 0 0-25.88211 30.577 5.212)"/><path d="m0 0h-8.771v.682c.462.001 1.042.118 1.373-.122.695.028 1.394-.027 2.048.028.739.079 1.436-.08 2.133.025.451.079.74.022 1.233.047.041 0 .203.086.244.086.533.054 1.74-.027 1.74-.027v-.719m-1.813-.554c-.019-.019-1.97-1.937-4.861-.022-.014.009-.001.023-.002.037.006.012.024.016.037.013v.002c.002-.0001.002-.002.004-.003.002 0 .004 0 .006-.0001.445-.199 2.77-1.127 4.779.024.014.008.032.004.041-.009.001-.012.008-.029-.004-.041m-.781-1.144c-.013-.014-1.334-1.322-3.271-.03-.014.009-.012.025-.004.04.006.012.025.016.039.012 0 0 .002 0 .002-.0001.002 0 .002 0 .004-.0001.289-.128 1.801-.728 3.193.029.014.007.029.003.039-.009.001-.012.008-.03-.002-.04m-.804-1.014c-.008-.006-.596-.617-1.59-.03-.014.008-.012.022-.006.037.004.015.027.02.043.017.219-.059.974-.229 1.515.026.014.006.03.002.04-.001.007-.012.007-.029-.002-.04m-2.901 4.679c.522 0 .947-.0001 1.244-.0001h.461l1.676 1.416 1.676 1.415c.051-.001.154-.081.25-.164.096-.083.183-.178.203-.233l-1.449-1.216-1.45-1.217h.766.764c.086 0 .191-.182.187-.363-.004-.18-.117-.362-.187-.362h-1.321-2.855c-.061 0-.164.182-.16.362.004.181.113.363.195.363m5.684 4.295h-7.528c-.652 0-1.181-.53-1.181-1.182v-7.527c0-.653.529-1.182 1.181-1.182h7.528c.652 0 1.181.529 1.181 1.182v7.527c0 .652-.529 1.182-1.181 1.182" transform="matrix(25.88211 0 0-25.88211 241.32 162.07)"/></svg>

<?xml version="1.0" encoding="UTF-8" standalone="no"?>
<!-- Created with Inkscape (http://www.inkscape.org/) -->
<svg
   xmlns:dc="http://purl.org/dc/elements/1.1/"
   xmlns:cc="http://creativecommons.org/ns#"
   xmlns:rdf="http://www.w3.org/1999/02/22-rdf-syntax-ns#"
   xmlns:svg="http://www.w3.org/2000/svg"
   xmlns="http://www.w3.org/2000/svg"
   xmlns:sodipodi="http://sodipodi.sourceforge.net/DTD/sodipodi-0.dtd"
   xmlns:inkscape="http://www.inkscape.org/namespaces/inkscape"
   width="256"
   height="256"
   id="svg8302"
   sodipodi:version="0.32"
   inkscape:version="0.46"
   version="1.0"
   sodipodi:docname="pictograms-nps-misc-metal_detectors-2.svg"
   inkscape:output_extension="org.inkscape.output.svg.inkscape">
  <defs
     id="defs8304">
    <inkscape:perspective
       sodipodi:type="inkscape:persp3d"
       inkscape:vp_x="0 : 526.18109 : 1"
       inkscape:vp_y="0 : 1000 : 0"
       inkscape:vp_z="744.09448 : 526.18109 : 1"
       inkscape:persp3d-origin="372.04724 : 350.78739 : 1"
       id="perspective8310" />
  </defs>
  <sodipodi:namedview
     id="base"
     pagecolor="#ffffff"
     bordercolor="#666666"
     borderopacity="1.0"
     gridtolerance="10000"
     guidetolerance="10"
     objecttolerance="10"
     inkscape:pageopacity="0.0"
     inkscape:pageshadow="2"
     inkscape:zoom="0.7"
     inkscape:cx="61.634556"
     inkscape:cy="136.73676"
     inkscape:document-units="px"
     inkscape:current-layer="layer1"
     showgrid="false"
     inkscape:window-width="738"
     inkscape:window-height="674"
     inkscape:window-x="0"
     inkscape:window-y="198" />
  <metadata
     id="metadata8307">
    <rdf:RDF>
      <cc:Work
         rdf:about="">
        <dc:format>image/svg+xml</dc:format>
        <dc:type
           rdf:resource="http://purl.org/dc/dcmitype/StillImage" />
      </cc:Work>
    </rdf:RDF>
  </metadata>
  <g
     inkscape:label="Layer 1"
     inkscape:groupmode="layer"
     id="layer1">
    <g
       id="g2762"
       transform="matrix(25.882115,0,0,-25.882115,30.576924,5.2124509)">
      <path
         d="M 0,0 C -0.541,0 -0.98,-0.439 -0.98,-0.98 L -0.98,-8.508 C -0.98,-9.049 -0.541,-9.49 0,-9.49 L 7.527,-9.49 C 8.068,-9.49 8.51,-9.049 8.51,-8.508 L 8.51,-0.98 C 8.51,-0.439 8.068,0 7.527,0 L 0,0 z"
         style="fill:#ffffff;fill-opacity:1;fill-rule:nonzero;stroke:none"
         id="path2764" />
    </g>
    <g
       id="g2766"
       transform="matrix(25.882115,0,0,-25.882115,241.32484,162.0738)">
      <path
         d="M 0,0 L -8.771,0 L -8.771,0.682 C -8.309,0.692 -7.729,0.8 -7.398,0.56 C -6.703,0.588 -6.004,0.533 -5.35,0.588 C -4.611,0.667 -3.914,0.508 -3.217,0.613 C -2.766,0.692 -2.477,0.635 -1.984,0.66 C -1.943,0.66 -1.781,0.746 -1.74,0.746 C -1.207,0.8 0,0.719 0,0.719 L 0,0 z M -1.813,-0.554 C -1.832,-0.573 -3.783,-2.491 -6.674,-0.576 C -6.688,-0.567 -6.684,-0.553 -6.676,-0.539 C -6.67,-0.527 -6.652,-0.523 -6.639,-0.526 L -6.639,-0.524 C -6.637,-0.525 -6.637,-0.526 -6.635,-0.527 C -6.633,-0.527 -6.631,-0.527 -6.629,-0.528 C -6.184,-0.727 -3.859,-1.655 -1.85,-0.504 C -1.836,-0.496 -1.818,-0.5 -1.809,-0.513 C -1.799,-0.525 -1.801,-0.542 -1.813,-0.554 M -2.594,-1.698 C -2.607,-1.712 -3.928,-3.02 -5.865,-1.728 C -5.879,-1.719 -5.877,-1.703 -5.869,-1.688 C -5.863,-1.676 -5.844,-1.672 -5.83,-1.676 C -5.83,-1.676 -5.828,-1.676 -5.828,-1.677 C -5.826,-1.677 -5.826,-1.677 -5.824,-1.678 C -5.535,-1.806 -4.023,-2.406 -2.631,-1.649 C -2.617,-1.642 -2.602,-1.646 -2.592,-1.658 C -2.582,-1.67 -2.584,-1.688 -2.594,-1.698 M -3.398,-2.712 C -3.406,-2.718 -3.994,-3.329 -4.988,-2.742 C -5.002,-2.734 -5,-2.72 -4.994,-2.705 C -4.99,-2.69 -4.967,-2.685 -4.951,-2.688 C -4.732,-2.747 -3.977,-2.917 -3.436,-2.662 C -3.422,-2.656 -3.406,-2.66 -3.396,-2.672 C -3.389,-2.684 -3.389,-2.701 -3.398,-2.712 M -6.299,1.967 C -5.777,1.967 -5.352,1.966 -5.055,1.966 L -4.594,1.966 L -2.918,3.382 L -1.242,4.797 C -1.191,4.787 -1.088,4.716 -0.992,4.633 C -0.896,4.55 -0.809,4.455 -0.789,4.4 L -2.238,3.184 L -3.688,1.967 L -2.922,1.967 L -2.158,1.967 C -2.072,1.967 -1.967,1.785 -1.971,1.604 C -1.975,1.424 -2.088,1.242 -2.158,1.242 L -3.479,1.242 L -6.334,1.242 C -6.395,1.242 -6.498,1.424 -6.494,1.604 C -6.49,1.785 -6.381,1.967 -6.299,1.967 M -0.615,6.262 L -8.143,6.262 C -8.795,6.262 -9.324,5.732 -9.324,5.08 L -9.324,-2.447 C -9.324,-3.1 -8.795,-3.629 -8.143,-3.629 L -0.615,-3.629 C 0.037,-3.629 0.566,-3.1 0.566,-2.447 L 0.566,5.08 C 0.566,5.732 0.037,6.262 -0.615,6.262"
         style="fill:#000000;fill-opacity:1;fill-rule:nonzero;stroke:none"
         id="path2768" />
    </g>
  </g>
</svg>
